src/lib/packages/icons/src/assets/line/globe-earth.svg

<svg width="24" height="24" viewBox="0 0 24 24" fill="none" xmlns="http://www.w3.org/2000/svg">
<path d="M12 1.25C6.072 1.25 1.25 6.073 1.25 12C1.25 17.927 6.072 22.75 12 22.75C17.928 22.75 22.75 17.927 22.75 12C22.75 6.073 17.928 1.25 12 1.25ZM21.25 12C21.25 12.034 21.245 12.067 21.245 12.101C20.797 12.206 20.348 12.435 20 12.791C19.848 12.67 19.5 12.309 18.937 11.27C18.315 10.123 18.562 9.58999 18.936 8.78299C19.063 8.50999 19.188 8.23499 19.28 7.95099C19.427 7.51599 19.403 6.93799 19.298 6.33499C20.516 7.90299 21.25 9.865 21.25 12ZM2.75 12C2.75 11.51 2.79899 11.033 2.87299 10.564C3.74599 13.072 5.705 14.066 6.797 14.617C6.981 14.71 7.19897 14.82 7.31897 14.895C7.36697 15.162 7.35902 15.35 7.34302 15.677C7.32802 16.004 7.30899 16.412 7.33899 17.047C7.39899 18.282 8.40302 18.807 9.13702 19.19C9.57702 19.42 9.99397 19.637 10.207 19.952C10.314 20.105 10.413 20.585 10.378 21.098C6.04999 20.329 2.75 16.547 2.75 12ZM11.868 21.243C11.931 20.428 11.781 19.583 11.444 19.102C11.025 18.483 10.392 18.152 9.83301 17.861C9.08901 17.472 8.85399 17.299 8.83899 16.976C8.81199 16.408 8.83002 16.042 8.84302 15.749C8.86302 15.327 8.88 14.962 8.75 14.403C8.623 13.858 8.116 13.602 7.474 13.278C6.113 12.592 3.85503 11.444 3.93903 7.479C5.52603 4.66 8.54198 2.75 12.001 2.75C12.394 2.75 12.779 2.78299 13.16 2.83099C12.999 3.04199 12.769 3.21701 12.533 3.29401C10.466 3.97101 10.444 5.809 10.429 7.026C10.417 8.047 10.351 8.23301 10.202 8.26801C10.077 8.25901 9.72499 8.06899 9.51599 7.95499C8.97899 7.66299 8.42502 7.36101 7.84802 7.50101C7.37202 7.61301 6.79297 8.05501 6.60797 8.68301C6.51597 8.99501 6.45099 9.61301 7.04999 10.234C7.41199 10.609 7.425 10.756 7.453 11.049C7.474 11.273 7.50403 11.579 7.66803 11.955C8.29903 13.349 10.192 13.134 10.912 13.05C12.03 12.91 12.232 12.904 12.793 13.488C13.021 13.725 13.154 14.027 13.294 14.347C13.561 14.953 13.925 15.783 15.052 15.913C15.932 16.022 16.496 16.299 16.665 16.526C16.706 16.581 16.716 16.619 16.705 16.683C16.652 16.997 16.258 17.372 15.801 17.807C15.043 18.527 14.039 19.493 13.676 21.092C13.132 21.192 12.573 21.252 12 21.252C11.955 21.25 11.912 21.244 11.868 21.243ZM15.439 20.58C15.789 19.893 16.315 19.385 16.834 18.892C17.459 18.298 18.048 17.738 18.185 16.93C18.264 16.461 18.155 16.01 17.869 15.627C17.241 14.784 15.951 14.51 15.232 14.421C14.996 14.394 14.933 14.341 14.669 13.741C14.5 13.356 14.289 12.876 13.876 12.447C12.777 11.303 11.871 11.416 10.735 11.559C9.36299 11.715 9.08998 11.453 9.03998 11.343C8.97598 11.197 8.96497 11.081 8.94897 10.906C8.90097 10.399 8.80198 9.88601 8.13098 9.19101C8.07498 9.13301 8.05201 9.093 8.04901 9.103C8.06501 9.06 8.15399 8.977 8.13599 8.966C8.25699 8.977 8.59699 9.162 8.79999 9.272C9.33299 9.562 9.88499 9.86 10.464 9.741C11.902 9.445 11.918 8.057 11.93 7.043C11.947 5.665 12.053 5.02899 13.001 4.71899C13.691 4.49299 14.382 3.91301 14.693 3.15201C15.502 3.39901 16.26 3.757 16.958 4.203C17.449 4.957 18.047 6.91899 17.858 7.48099C17.782 7.71499 17.679 7.93401 17.577 8.15201C17.159 9.05301 16.639 10.175 17.62 11.985C18.467 13.546 19.147 14.248 19.895 14.334C19.936 14.339 19.983 14.342 20.036 14.342C20.303 14.342 20.7 14.256 21.065 13.85C20.438 16.919 18.285 19.435 15.439 20.58Z" fill="currentColor"/>
</svg>

<svg xmlns="http://www.w3.org/2000/svg" width="24" height="24" fill="none"><path fill="currentColor" d="M12 1.25C6.072 1.25 1.25 6.073 1.25 12S6.072 22.75 12 22.75 22.75 17.927 22.75 12 17.928 1.25 12 1.25ZM21.25 12c0 .034-.005.067-.005.101a2.57 2.57 0 0 0-1.245.69c-.152-.121-.5-.482-1.063-1.521-.622-1.147-.375-1.68-.001-2.487a7.4 7.4 0 0 0 .344-.832c.147-.435.123-1.013.018-1.616A9.204 9.204 0 0 1 21.25 12Zm-18.5 0c0-.49.049-.967.123-1.436.873 2.508 2.832 3.502 3.924 4.053.184.093.402.203.522.278.048.267.04.455.024.782-.015.327-.034.735-.004 1.37.06 1.235 1.064 1.76 1.798 2.143.44.23.857.447 1.07.762.107.153.206.633.171 1.146C6.05 20.329 2.75 16.547 2.75 12Zm9.118 9.243c.063-.815-.087-1.66-.424-2.141-.419-.619-1.052-.95-1.611-1.241-.744-.389-.979-.562-.994-.885-.027-.568-.009-.934.004-1.227.02-.422.037-.787-.093-1.346-.127-.545-.634-.801-1.276-1.125-1.361-.686-3.619-1.834-3.535-5.799C5.526 4.66 8.542 2.75 12.001 2.75c.393 0 .778.033 1.159.081a1.357 1.357 0 0 1-.627.463c-2.067.677-2.089 2.515-2.104 3.732-.012 1.021-.078 1.207-.227 1.242-.125-.009-.477-.199-.686-.313-.537-.292-1.091-.594-1.668-.454-.476.112-1.055.554-1.24 1.182-.092.312-.157.93.442 1.551.362.375.375.522.403.815.021.224.051.53.215.906.631 1.394 2.524 1.179 3.244 1.095 1.118-.14 1.32-.146 1.881.438.228.237.361.539.501.859.267.606.631 1.436 1.758 1.566.88.109 1.444.386 1.613.613.041.055.051.093.04.157-.053.314-.447.689-.904 1.124-.758.72-1.762 1.686-2.125 3.285-.544.1-1.103.16-1.676.16-.045-.002-.088-.008-.132-.009Zm3.571-.663c.35-.687.876-1.195 1.395-1.688.625-.594 1.214-1.154 1.351-1.962.079-.469-.03-.92-.316-1.303-.628-.843-1.918-1.117-2.637-1.206-.236-.027-.299-.08-.563-.68-.169-.385-.38-.865-.793-1.294-1.099-1.144-2.005-1.031-3.141-.888-1.372.156-1.645-.106-1.695-.216-.064-.146-.075-.262-.091-.437-.048-.507-.147-1.02-.818-1.715-.056-.058-.079-.098-.082-.088.016-.043.105-.126.087-.137.121.011.461.196.664.306.533.29 1.085.588 1.664.469 1.438-.296 1.454-1.684 1.466-2.698.017-1.378.123-2.014 1.071-2.324.69-.226 1.381-.806 1.692-1.567a9.188 9.188 0 0 1 2.265 1.051c.491.754 1.089 2.716.9 3.278-.076.234-.179.453-.281.671-.418.901-.938 2.023.043 3.833.847 1.561 1.527 2.263 2.275 2.349.041.005.088.008.141.008.267 0 .664-.086 1.029-.492a9.285 9.285 0 0 1-5.626 6.73Z"/></svg>
